X: 118
T: No_2_Song_of_the_Manido.krn
N: Derived from No_2_Song_of_the_Manido.krn
%%abc-version 2.0
%%abcx-abcm2ps-target-version 5.9.1 (29 Sep 2008)
%%abc-creator hum2abc beta
%%abcx-conversion-date 2019/03/15 08:29:13
%%humdrum-veritas 3974465292
%%humdrum-veritas-data 2448161306
%%linebreak <none>
%%barnumbers 0
L: 1/4
M: 2/4
%%staves {1 2}
V: 1 clef=bass
V: 2 clef=bass
K: F
[V:1] [K:clef=bass][M:2/4]CC | 
[V:2] [K:clef=bass][M:2/4]G,,/G,,/ G,,/G,,/ | 
[V:1] C3/C/ | 
[V:2] G,,/G,,/ G,,/G,,/ | 
[V:1] CC | 
[V:2] z2 | 
[V:1] A,A, ||  
[V:2] z2 ||  
[V:1] [M:3/4]G,A,A, ||  
[V:2] [M:3/4]z3 ||  
[V:1] [M:2/4]!fermata!G,3/G,/ | 
[V:2] [M:2/4]z2 | 
[V:1] G,G, | 
[V:2] z2 | 
[V:1] F,F, ||  
[V:2] z2 ||  
[V:1] [M:3/4]D,G,G, ]|:  
[V:2] [M:3/4]z3 ]|:  
[V:1] [M:2/4]!fermata!G,3/G,/ | 
[V:2] [M:2/4]z2 | 
[V:1] G,G, | 
[V:2] z2 | 
[V:1] G,G, ||  
[V:2] z2 ||  
[V:1] [M:3/4]F,G,G, ||  
[V:2] [M:3/4]z3 ||  
[V:1] [M:2/4]!fermata!F,3/F,/ | 
[V:2] [M:2/4]z2 | 
[V:1] F,F, | 
[V:2] z2 | 
[V:1] D,D, ||  
[V:2] z2 ||  
[V:1] [M:3/4]C,D,D, ||  
[V:2] [M:3/4]z3 ||  
[V:1] [M:2/4]C,3/C,/ | 
[V:2] [M:2/4]z2 | 
[V:1] C,C, | 
[V:2] z2 | 
[V:1] B,,B,, ||  
[V:2] z2 ||  
[V:1] [M:3/4]B,,D,D, ||  
[V:2] [M:3/4]z3 ||  
[V:1] [M:2/4]D,3/D,/ | 
[V:2] [M:2/4]z2 | 
[V:1] D,D, | 
[V:2] z2 | 
[V:1] D,D, ||  
[V:2] z2 ||  
[V:1] [M:3/4]C,D,D, ||  
[V:2] [M:3/4]z3 ||  
[V:1] [M:2/4]!fermata!C,3/C,/ | 
[V:2] [M:2/4]z2 | 
[V:1] C,C, | 
[V:2] z2 | 
[V:1] A,,A,, ||  
[V:2] z2 ||  
[V:1] [M:3/4]A,,z2 | 
[V:2] [M:3/4]z3 | 
[V:1] zCC ||  
[V:2] z3 ||  
[V:1] [M:2/4]C3/C/ | 
[V:2] [M:2/4]z2 | 
[V:1] CA, | 
[V:2] z2 | 
[V:1] A,G, | 
[V:2] z2 | 
[V:1] A,A, :|]  
[V:2] z2 :|]  



